public/images/apollo.svg

<svg width="57" height="57" viewBox="0 0 57 57" fill="none" xmlns="http://www.w3.org/2000/svg">
<path d="M35.6755 39.7484H41.8275L32.0068 14.2609H25.2049L15.3842 39.7484H21.5366L23.1416 35.4311H32.4208L30.741 30.6538H24.6313L28.6058 19.687L35.6755 39.7484ZM55.9622 20.878C55.9104 20.6906 55.8221 20.5152 55.7024 20.362C55.5827 20.2087 55.434 20.0806 55.2647 19.9849C55.0954 19.8892 54.9089 19.8278 54.7159 19.8043C54.5228 19.7808 54.3271 19.7956 54.1398 19.8478C53.7615 19.9528 53.4405 20.2037 53.2472 20.5454C53.054 20.8871 53.0044 21.2915 53.1093 21.6698C53.7268 23.894 54.0397 26.1917 54.0396 28.5C54.0396 42.5826 42.5826 54.0391 28.5 54.0391C14.4174 54.0391 2.96066 42.5826 2.96066 28.5C2.96066 14.4172 14.4174 2.96044 28.5 2.96044C34.4656 2.96044 40.238 5.07968 44.7938 8.85103C44.6114 9.2863 44.5177 9.75356 44.5181 10.2255C44.5181 12.1927 46.1128 13.7873 48.0799 13.7873C50.0471 13.7873 51.6418 12.1927 51.6418 10.2255C51.6418 8.25832 50.0471 6.66366 48.0799 6.66366C47.7012 6.66366 47.3367 6.724 46.9943 6.83354C41.8643 2.46169 35.2939 0 28.5 0C12.7851 0 0 12.7849 0 28.5C0 44.2149 12.7851 56.9998 28.5 56.9998C44.2149 56.9998 57 44.2149 57 28.5C57.0002 25.9241 56.6511 23.3601 55.9622 20.878Z" fill="#112B49"/>
</svg>

<svg xmlns="http://www.w3.org/2000/svg" fill="none" viewBox="0 0 57 57">
  <path fill="#112B49" d="M35.675 39.748h6.153l-9.821-25.487h-6.802l-9.82 25.487h6.152l1.605-4.317h9.279l-1.68-4.777h-6.11l3.975-10.967 7.07 20.061zm20.287-18.87a1.478 1.478 0 00-1.822-1.03 1.48 1.48 0 00-1.03 1.822c.617 2.224.93 4.522.93 6.83 0 14.083-11.457 25.54-25.54 25.54-14.083 0-25.54-11.457-25.54-25.54 0-14.083 11.457-25.54 25.54-25.54 5.966 0 11.738 2.12 16.294 5.891a3.562 3.562 0 102.2-2.017C41.864 2.462 35.294 0 28.5 0 12.785 0 0 12.785 0 28.5S12.785 57 28.5 57 57 44.215 57 28.5c0-2.576-.349-5.14-1.038-7.622z"/>
</svg>
